X:1
T:Latimer, CM
T:Latimer, CM
T:Anonymous, 1874
T:Public Domain Courtesy of the Cyber Hymnal™
C:Anonymous, 1874
Z:Public Domain
Z:Courtesy of the Cyber Hymnal™
%%score ( 1 2 ) ( 3 4 )
L:1/8
Q:1/2=87
M:2/2
K:F
V:1 treble 
V:2 treble 
V:3 bass 
V:4 bass 
V:1
 [CF]4 [CF]2 [CF]2 | [CA]4 F4 | [FB]4 [Fd]4 | [Fc]6 [Fc]2 | [Ec]4 [FA]4 | [EG]4 =B4 | [Ec]6 C2 | %7
 [EG]4 (A2 G2) | F4 C4 | [EB]4 (c2 B2) | [FA]4 (F2 A2) | c6 A2 | F4 [EG]4 | [CF]8 |] %14
V:2
 x8 | x4 F4 | x8 | x8 | x8 | x4 (D2 F2) | x6 C2 | x4 E4 | F4 C4 | x4 E4 | x4 F2 A2 | c6 A2 | %12
 F4 x4 | x8 |] %14
V:3
 [F,A,]4 [F,A,]2 [F,A,]2 | [F,C]4 [F,A,]4 | [D,F,]4 [B,,B,]4 | [F,A,]6 [F,A,]2 | [C,G,]4 (A,2 C2) | %5
 [G,C]4 G,4 | [C,G,]6 C,2 | [C,B,]4 (C2 B,2) | [C,A,]4 C,4 | [C,G,]4 (A,2 G,2) | F,4 F,2 A,2 | %11
 C6 A,2 | F,4 [C,B,]4 | [F,A,]8 |] %14
V:4
 x8 | x8 | x8 | x8 | x4 F,4 | x4 G,4 | x6 C,2 | x4 C,4 | x4 C,4 | x4 C,4 | F,4 (F,2 A,2) | C6 A,2 | %12
 F,4 x4 | x8 |] %14

